storage/app/icons/phosphoricons/duotone/matrix-logo-duotone.svg

<svg xmlns="http://www.w3.org/2000/svg" fill="currentColor" viewBox="0 0 256 256"><path d="M216 40v176H40V40Z" opacity=".2"/><path d="M72 216a8 8 0 0 1-8 8H40a8 8 0 0 1-8-8V40a8 8 0 0 1 8-8h24a8 8 0 0 1 0 16H48v160h16a8 8 0 0 1 8 8M216 32h-24a8 8 0 0 0 0 16h16v160h-16a8 8 0 0 0 0 16h24a8 8 0 0 0 8-8V40a8 8 0 0 0-8-8m-32 88a32 32 0 0 0-56-21.13 31.93 31.93 0 0 0-40.71-6.15A8 8 0 0 0 72 96v64a8 8 0 0 0 16 0v-40a16 16 0 0 1 32 0v40a8 8 0 0 0 16 0v-40a16 16 0 0 1 32 0v40a8 8 0 0 0 16 0Z"/></svg>

<svg xmlns="http://www.w3.org/2000/svg" viewBox="0 0 256 256" fill="currentColor"><path d="M216,40V216H40V40Z" opacity="0.2"/><path d="M72,216a8,8,0,0,1-8,8H40a8,8,0,0,1-8-8V40a8,8,0,0,1,8-8H64a8,8,0,0,1,0,16H48V208H64A8,8,0,0,1,72,216ZM216,32H192a8,8,0,0,0,0,16h16V208H192a8,8,0,0,0,0,16h24a8,8,0,0,0,8-8V40A8,8,0,0,0,216,32Zm-32,88a32,32,0,0,0-56-21.13,31.93,31.93,0,0,0-40.71-6.15A8,8,0,0,0,72,96v64a8,8,0,0,0,16,0V120a16,16,0,0,1,32,0v40a8,8,0,0,0,16,0V120a16,16,0,0,1,32,0v40a8,8,0,0,0,16,0Z"/></svg>
